src/icons/svg/RestoreFromTrash.svg

<svg width="24" height="24" viewBox="0 0 24 24" fill="none" xmlns="http://www.w3.org/2000/svg">
<path d="M12.917 11.146H12.403C12.138 11.146 11.923 11.361 11.923 11.626V19.563C11.923 19.828 12.138 20.043 12.403 20.043H12.917C13.182 20.043 13.397 19.828 13.397 19.563V11.626C13.397 11.361 13.182 11.146 12.917 11.146ZM12.797 19.44H12.523V11.746H12.797V19.44Z" fill="#1C2125"/>
<path d="M7.94198 11.146H7.42598C7.16098 11.146 6.94598 11.361 6.94598 11.626V19.563C6.94598 19.828 7.16098 20.043 7.42598 20.043H7.94198C8.20698 20.043 8.42198 19.828 8.42198 19.563V11.626C8.42198 11.361 8.20698 11.146 7.94198 11.146ZM7.82198 19.44H7.54598V11.746H7.82198V19.44Z" fill="#1C2125"/>
<path d="M10.428 11.146H9.91402C9.64902 11.146 9.43402 11.361 9.43402 11.626V19.563C9.43402 19.828 9.64902 20.043 9.91402 20.043H10.428C10.693 20.043 10.908 19.828 10.908 19.563V11.626C10.908 11.361 10.693 11.146 10.428 11.146ZM10.32 19.44H10.034V11.746H10.32V19.44Z" fill="#1C2125"/>
<path d="M21.374 16.334L20.508 13.082C20.427 12.782 20.156 12.564 19.835 12.564C19.771 12.564 19.71 12.573 19.651 12.589L19.656 12.588L18.12 12.998L17.177 9.451C17.156 9.374 17.086 9.318 17.003 9.318C16.986 9.318 16.97 9.32 16.955 9.325H16.956L16.294 9.503V8.831C16.294 8.83 16.294 8.829 16.294 8.829C16.294 8.731 16.214 8.651 16.116 8.651C16.115 8.651 16.114 8.651 16.113 8.651H4.23298C4.13398 8.651 4.05298 8.732 4.05298 8.831V10.391C4.05398 10.49 4.13398 10.57 4.23298 10.571H4.58598L5.20498 21.433C5.21098 21.527 5.28898 21.601 5.38498 21.601H14.961C15.056 21.601 15.134 21.527 15.141 21.434V21.433L15.715 11.427L18.377 21.428C18.399 21.505 18.469 21.561 18.553 21.561C18.569 21.561 18.585 21.559 18.6 21.555H18.599L20.106 21.152C20.183 21.132 20.239 21.062 20.239 20.98C20.239 20.963 20.237 20.948 20.233 20.932V20.933L19.345 17.597L20.881 17.187C21.181 17.106 21.399 16.835 21.399 16.514C21.399 16.45 21.39 16.389 21.374 16.33L21.375 16.335L21.374 16.334ZM14.566 21.007H5.78398L5.18598 10.56H15.16L14.566 21.007ZM15.694 9.506V9.66L15.454 9.725C15.377 9.746 15.321 9.816 15.321 9.899C15.321 9.916 15.323 9.932 15.328 9.947V9.946V9.97H4.65498V9.25H15.695L15.694 9.506ZM19.534 20.681L18.838 20.866L16.008 10.188L16.294 10.111L16.704 10.003L19.534 20.681ZM18.574 14.717L19.152 14.563L19.462 15.722L18.881 15.876L18.72 15.288L18.574 14.717ZM20.734 16.608L19.774 16.862L19.2 17.016L19.183 16.954L19.051 16.457L20.035 16.193C20.113 16.172 20.17 16.102 20.17 16.019C20.17 16.003 20.168 15.988 20.164 15.974V15.975L19.638 14.002C19.617 13.925 19.547 13.869 19.464 13.869C19.447 13.869 19.431 13.871 19.416 13.876H19.417L18.421 14.138L18.272 13.579L19.813 13.171C19.821 13.169 19.83 13.167 19.84 13.167C19.884 13.167 19.92 13.197 19.931 13.237V13.238L20.797 16.492C20.799 16.499 20.8 16.507 20.8 16.516C20.8 16.562 20.768 16.6 20.726 16.61H20.725L20.734 16.608Z" fill="#1C2125"/>
<path d="M11.081 5.56599L11.448 5.65199C11.712 5.70399 11.918 5.90399 11.977 6.16099L11.978 6.16599L12.067 6.53999C12.103 6.69599 12.24 6.80999 12.404 6.80999C12.568 6.80999 12.705 6.69599 12.741 6.54199V6.53999L12.83 6.16599C12.88 5.90799 13.079 5.70699 13.332 5.65299L13.336 5.65199L13.706 5.57C13.799 5.557 13.878 5.50399 13.926 5.42999L13.927 5.42899C13.963 5.37599 13.985 5.30999 13.985 5.23899C13.985 5.23799 13.985 5.23799 13.985 5.23699C13.985 5.23599 13.985 5.23399 13.985 5.23199C13.985 5.07699 13.886 4.94499 13.747 4.89699L13.745 4.89599L13.359 4.8C13.094 4.758 12.885 4.562 12.825 4.308L12.824 4.30399L12.759 3.91799C12.723 3.76199 12.586 3.64799 12.422 3.64799C12.258 3.64799 12.121 3.76199 12.085 3.91599V3.91799L11.996 4.28999C11.94 4.55899 11.736 4.77 11.475 4.834L11.47 4.835L11.103 4.9C10.948 4.935 10.834 5.072 10.834 5.235V5.236C10.835 5.391 10.938 5.52299 11.079 5.56699L11.081 5.56799V5.56599ZM12.396 4.714C12.517 4.94 12.702 5.119 12.927 5.229L12.934 5.23199C12.705 5.34899 12.524 5.53099 12.411 5.75299L12.408 5.76C12.288 5.534 12.106 5.35399 11.884 5.23999L11.877 5.23699C12.1 5.11799 12.278 4.938 12.392 4.721L12.395 4.714H12.396Z" fill="#1C2125"/>
<path d="M6.96 6.55L7.246 6.617C7.437 6.653 7.585 6.798 7.627 6.983L7.628 6.986L7.695 7.276C7.727 7.414 7.848 7.515 7.992 7.516C8.137 7.516 8.257 7.414 8.287 7.278V7.276L8.357 6.983C8.397 6.799 8.538 6.656 8.719 6.614L8.722 6.613L9.008 6.551C9.09 6.539 9.159 6.493 9.202 6.427L9.203 6.426C9.234 6.378 9.253 6.319 9.253 6.256C9.253 6.255 9.253 6.253 9.253 6.251C9.253 6.117 9.168 6.004 9.049 5.961L9.047 5.96L8.745 5.89C8.555 5.862 8.404 5.721 8.362 5.538L8.361 5.535L8.311 5.233C8.28 5.096 8.16 4.994 8.016 4.993C7.871 4.995 7.751 5.096 7.719 5.231V5.233L7.63 5.519C7.59 5.714 7.443 5.867 7.254 5.914L7.251 5.915L6.963 5.956C6.828 5.989 6.729 6.109 6.729 6.252C6.729 6.395 6.828 6.515 6.961 6.548H6.963L6.96 6.55ZM7.987 5.928C8.071 6.065 8.185 6.177 8.321 6.254L8.326 6.256C8.189 6.339 8.077 6.452 7.997 6.585L7.995 6.589C7.911 6.453 7.798 6.342 7.663 6.263L7.659 6.261C7.792 6.175 7.901 6.063 7.98 5.932L7.983 5.927L7.987 5.928Z" fill="#1C2125"/>
<path d="M9.35999 3.63099H9.533V3.80099C9.533 3.93399 9.63999 4.04099 9.77299 4.04099C9.90599 4.04099 10.013 3.93399 10.013 3.80099V3.63099H10.2C10.333 3.63099 10.44 3.52399 10.44 3.39099C10.44 3.25799 10.333 3.15099 10.2 3.15099H10.013V2.96099C10.013 2.82799 9.90599 2.72099 9.77299 2.72099C9.63999 2.72099 9.533 2.82799 9.533 2.96099V3.15099H9.35999C9.22699 3.15099 9.12 3.25799 9.12 3.39099C9.12 3.52399 9.22699 3.63099 9.35999 3.63099V3.63099Z" fill="#1C2125"/>
</svg>

<!-- Generated by IcoMoon.io -->
<svg version="1.1" xmlns="http://www.w3.org/2000/svg" width="24" height="24" viewBox="0 0 24 24">
<title>restore-from-trash</title>
<path fill="#444" d="M12.917 11.146h-0.514c-0.265 0-0.48 0.215-0.48 0.48v0 7.937c0 0.265 0.215 0.48 0.48 0.48v0h0.514c0.265 0 0.48-0.215 0.48-0.48v0-7.937c0-0.265-0.215-0.48-0.48-0.48v0zM12.797 19.44h-0.274v-7.694h0.274z"></path>
<path fill="#444" d="M7.942 11.146h-0.516c-0.265 0-0.48 0.215-0.48 0.48v0 7.937c0 0.265 0.215 0.48 0.48 0.48v0h0.516c0.265 0 0.48-0.215 0.48-0.48v0-7.937c0-0.265-0.215-0.48-0.48-0.48v0zM7.822 19.44h-0.276v-7.694h0.276z"></path>
<path fill="#444" d="M10.428 11.146h-0.514c-0.265 0-0.48 0.215-0.48 0.48v0 7.937c0 0.265 0.215 0.48 0.48 0.48v0h0.514c0.265 0 0.48-0.215 0.48-0.48v0-7.937c0-0.265-0.215-0.48-0.48-0.48v0zM10.32 19.44h-0.286v-7.694h0.286z"></path>
<path fill="#444" d="M21.374 16.334l-0.866-3.252c-0.081-0.3-0.352-0.518-0.673-0.518-0.064 0-0.125 0.009-0.184 0.025l0.005-0.001-1.536 0.41-0.943-3.547c-0.021-0.077-0.091-0.133-0.174-0.133-0.017 0-0.033 0.002-0.048 0.007l0.001-0-0.662 0.178v-0.672c0-0.001 0-0.002 0-0.002 0-0.098-0.080-0.178-0.178-0.178-0.001 0-0.002 0-0.003 0h-11.88c-0.099 0-0.18 0.081-0.18 0.18v0 1.56c0.001 0.099 0.081 0.179 0.18 0.18h0.353l0.619 10.862c0.006 0.094 0.084 0.168 0.18 0.168 0 0 0 0 0 0h9.576c0 0 0 0 0 0 0.095 0 0.173-0.074 0.18-0.167l0-0.001 0.574-10.006 2.662 10.001c0.022 0.077 0.092 0.133 0.176 0.133 0.016 0 0.032-0.002 0.047-0.006l-0.001 0 1.507-0.403c0.077-0.020 0.133-0.090 0.133-0.172 0-0.017-0.002-0.032-0.006-0.048l0 0.001-0.888-3.336 1.536-0.41c0.3-0.081 0.518-0.352 0.518-0.673 0-0.064-0.009-0.125-0.025-0.184l0.001 0.005zM14.566 21.007h-8.782l-0.598-10.447h9.974zM15.694 9.506v0.154l-0.24 0.065c-0.077 0.021-0.133 0.091-0.133 0.174 0 0.017 0.002 0.033 0.007 0.048l-0-0.001v0.024h-10.673v-0.72h11.040zM19.534 20.681l-0.696 0.185-2.83-10.678 0.286-0.077 0.41-0.108zM18.574 14.717l0.578-0.154 0.31 1.159-0.581 0.154-0.161-0.588zM20.734 16.608l-0.96 0.254-0.574 0.154-0.017-0.062-0.132-0.497 0.984-0.264c0.078-0.021 0.135-0.091 0.135-0.174 0-0.016-0.002-0.031-0.006-0.045l0 0.001-0.526-1.973c-0.021-0.077-0.091-0.133-0.174-0.133-0.017 0-0.033 0.002-0.048 0.007l0.001-0-0.996 0.262-0.149-0.559 1.541-0.408c0.008-0.002 0.017-0.004 0.027-0.004 0.044 0 0.080 0.030 0.091 0.070l0 0.001 0.866 3.254c0.002 0.007 0.003 0.015 0.003 0.024 0 0.046-0.032 0.084-0.074 0.094l-0.001 0z"></path>
<path fill="#444" d="M11.081 5.566v0l0.367 0.086c0.264 0.052 0.47 0.252 0.529 0.509l0.001 0.005 0.089 0.374c0.036 0.156 0.173 0.27 0.337 0.27s0.301-0.114 0.337-0.268l0-0.002 0.089-0.374c0.050-0.258 0.249-0.459 0.502-0.513l0.004-0.001 0.37-0.082c0.093-0.013 0.172-0.066 0.22-0.14l0.001-0.001c0.036-0.053 0.058-0.119 0.058-0.19 0-0.001 0-0.001 0-0.002v0c0-0.001 0-0.003 0-0.005 0-0.155-0.099-0.287-0.238-0.335l-0.002-0.001-0.386-0.096c-0.265-0.042-0.474-0.238-0.534-0.492l-0.001-0.004-0.065-0.386c-0.036-0.156-0.173-0.27-0.337-0.27s-0.301 0.114-0.337 0.268l-0 0.002-0.089 0.372c-0.056 0.269-0.26 0.48-0.521 0.544l-0.005 0.001-0.367 0.065c-0.155 0.035-0.269 0.172-0.269 0.335 0 0 0 0.001 0 0.001v-0c0.001 0.155 0.104 0.287 0.245 0.331l0.002 0.001zM12.396 4.714c0.121 0.226 0.306 0.405 0.531 0.515l0.007 0.003c-0.229 0.117-0.41 0.299-0.523 0.521l-0.003 0.007c-0.12-0.226-0.302-0.406-0.524-0.52l-0.007-0.003c0.223-0.119 0.401-0.299 0.515-0.516l0.003-0.007z"></path>
<path fill="#444" d="M6.96 6.55v0l0.286 0.067c0.191 0.036 0.339 0.181 0.381 0.366l0.001 0.003 0.067 0.29c0.032 0.138 0.153 0.239 0.297 0.24h0c0.145-0 0.265-0.102 0.295-0.238l0-0.002 0.070-0.293c0.040-0.184 0.181-0.327 0.362-0.369l0.003-0.001 0.286-0.062c0.082-0.012 0.151-0.058 0.194-0.124l0.001-0.001c0.031-0.048 0.050-0.107 0.050-0.17v-0c0-0.001 0-0.003 0-0.005 0-0.134-0.085-0.247-0.204-0.29l-0.002-0.001-0.302-0.070c-0.19-0.028-0.341-0.169-0.383-0.352l-0.001-0.003-0.050-0.302c-0.031-0.137-0.151-0.239-0.295-0.24h-0c-0.145 0.002-0.265 0.103-0.297 0.238l-0 0.002-0.089 0.286c-0.040 0.195-0.187 0.348-0.376 0.395l-0.003 0.001-0.288 0.041c-0.135 0.033-0.234 0.153-0.234 0.296s0.099 0.263 0.232 0.296l0.002 0zM7.987 5.928c0.084 0.137 0.198 0.249 0.334 0.326l0.005 0.002c-0.137 0.083-0.249 0.196-0.329 0.329l-0.002 0.004c-0.084-0.136-0.197-0.247-0.332-0.326l-0.004-0.002c0.133-0.086 0.242-0.198 0.321-0.329l0.003-0.005z"></path>
<path fill="#444" d="M9.36 3.631h0.173v0.17c0 0.133 0.107 0.24 0.24 0.24s0.24-0.107 0.24-0.24v0-0.17h0.187c0.133 0 0.24-0.107 0.24-0.24s-0.107-0.24-0.24-0.24v0h-0.187v-0.19c0-0.133-0.107-0.24-0.24-0.24s-0.24 0.107-0.24 0.24v0 0.19h-0.173c-0.133 0-0.24 0.107-0.24 0.24s0.107 0.24 0.24 0.24v0z"></path>
</svg>
